!!!OTL: 662a. Der Wandersmann.
!!!ARE: Europa, Mitteleuropa, Deutschland, Thueringen; Sachsen; Brandenburg
!!!SCT: B0662
!!!TXL: @@DE
!!!YEM: Copyright 1995, estate of Helmut Schaffrath.
**kern	**text
*ICvox	*
*Ivox	*
*clefG2	*
*M3/4	*
*k[f#]	*
*G:	*
!LO:TX:a:t=Mäßig bewegt	!
{4d	Ein
=1	=1
4.b	Sträußchen,
8a	.
4g	am
=2	=2
4.d	Hu-
8e	-te,
4d	den
=3	=3
4d	Stab
4f#	an
4a	der
=4	=4
2a}	Hand
{4d	ʒieht
=5	=5
4.cc	raſt-
8b	-los
4a	der
=6	=6
4g	Wandrer
4f#	.
4e	von
=7	=7
4d	Lan-
4b	-de
4a	ʒu
=8	=8
2g}	Land.
{4g	Er
=9	=9
4a	ſieht
4a	ſo
4a	manch
=10	=10
4.a	Städichen,
8a	.
4a	er
=11	=11
4a	ſieht
4dd	manchen
4cc	.
=12	=12
2b}	Ort
{8gL	doch
8aJ	.
=13	=13
4.b	fort
8a	muß
4b	er
=14	=14
4cc	wie-
4e	-der,
4a	muß
=15	=15
(<4g	wei-
4b)	.
4a	-ter
=16	=16
4g	fort.
4r}	.
==	==
!!!AGN: Wander -, Moral - Lied, Vergaenglichkeit
!!!GTL: Didaktische Lieder: Betrachtungen, Vergleiche und Moralisationen
!!!ONB: ESAC (Essen Associative Code) Database: BOEHME
!!!AMT: simple triple
!!!AIN: vox
!!!EED: Helmut Schaffrath
!!!EEV: 1.0
!!!RDF**kern: < = below
!!Mel. mündlich aus Thüringen und Sachſen 1850, Brandenburg 1854, Naſſau 1890 und Elſaß 1890.
!!@@COMMENT:"Ein durch ganʒ Deutſchland gekanntes und beliebtes Lied, das ſich das Volk in Schwaben
!!und im Elſaß, in Thüringen und Sachſen, in dem Brandenburgiſchen und Naſſauiſchen rc. ʒurecht
!!geſungen hat und darum in vielen Varianten vorliegt. Der urſprugliche Text beißt: "Ein Reislein
!!am Hute, den Stab in der Hand" und ſtammt nebſt Melodie von Conrad Rotter 1625. Der
!!Verfaſſer ſtarb als Oberlehrer am Matthiasgymnaſium in Breslau 1851. (Näheres berichtet der
!!Brief ſeiner Wittwe (ſ. unten), dem auch die Abſchrift des Originals beigelegt war. Durch
!!Silchers Ausgabe 1835, die ʒugleich den erſten Druck bildet, kam das Lied ʒur weiteren Um-
!!bildung unter das ſingende Volk. Die Redaktion bei Fr. Silcher (Heft 8, Nr. 9 iſt aber keine
!!gute und die Faſſung der Melodie dort ſehr trivial. Beſſer die obenſtebende, jetʒt am meiſten ver-
!!breitete aus Volksmund. - Auch in Volksſchulen wird ſeit 1850 das Lied gern geſungen, und
!!darum der Tert durch Lehrer etwas umgeändert wurde. - Ein ernſtes Thema, ein Vergleich des
!!Menſchen mit dem Wandter, wird hier durchgeführt, gemäß den Worten Schillers: "Er iſt ein
!!Fremdling, er wandert aus und ſucht ein unvergänglich Haus. [...]"
!!@@END:
!!!URL-scan: https://archive.org/details/BoehmeVtLieder1895/page/n515/mode/2up
!!!ENC: Anna Maria Matuszewska
!!!EEV: 2024/16/07
*-	*-
